src/front_end/assets/images/svg/icon_video_player_volume.svg

<svg xmlns="http://www.w3.org/2000/svg" width="15" height="14" viewBox="0 0 15 14"><path fill="#FFF" d="M6.126 1.458V12.54c0 .13-.06.224-.18.276-.13.043-.236.02-.322-.065l-3.13-3.12h-2.2c-.077 0-.144-.02-.204-.08S0 9.42 0 9.34V4.67c0-.085.03-.155.09-.21.057-.053.126-.08.2-.08h2.205l3.127-3.13c.086-.088.194-.11.324-.066.12.053.18.146.18.274zM9.3 11.634c-.14.13-.274.13-.404 0l-.826-.81c-.13-.15-.13-.292 0-.422C9.008 9.462 9.48 8.33 9.48 7s-.473-2.463-1.41-3.403c-.142-.13-.142-.265 0-.405l.825-.826c.13-.13.265-.13.405 0 .843.843 1.412 1.826 1.71 2.95.297 1.123.297 2.247 0 3.37-.297 1.123-.866 2.106-1.71 2.948zm1.864 2.27l-.826-.812c-.13-.15-.13-.292 0-.422 1.026-1.025 1.72-2.23 2.082-3.604.363-1.38.363-2.755 0-4.132-.36-1.377-1.056-2.58-2.082-3.605-.142-.13-.142-.27 0-.41l.826-.83c.13-.13.265-.13.404 0 1.252 1.25 2.104 2.71 2.552 4.39.45 1.67.45 3.35 0 5.02-.44 1.67-1.3 3.14-2.55 4.39-.14.13-.27.13-.4 0z"/></svg>

<?xml version="1.0" encoding="utf-8"?>
<!-- Generator: Adobe Illustrator 16.0.0, SVG Export Plug-In . SVG Version: 6.00 Build 0)  -->
<!DOCTYPE svg PUBLIC "-//W3C//DTD SVG 1.1//EN" "http://www.w3.org/Graphics/SVG/1.1/DTD/svg11.dtd">
<svg version="1.1" xmlns="http://www.w3.org/2000/svg" xmlns:xlink="http://www.w3.org/1999/xlink" x="0px" y="0px" width="15px"
	 height="14px" viewBox="0 0 15 14" enable-background="new 0 0 15 14" xml:space="preserve">
<g id="Layer_2">
</g>
<g id="Layer_1">
	<g>
		<path fill="#FFFFFF" d="M6.126,1.458v11.083c0,0.129-0.061,0.223-0.179,0.275c-0.13,0.043-0.237,0.021-0.323-0.065L2.495,9.625
			H0.292c-0.076,0-0.144-0.025-0.203-0.081c-0.06-0.054-0.09-0.124-0.09-0.211V4.667c0-0.086,0.03-0.156,0.09-0.21
			C0.147,4.403,0.216,4.376,0.29,4.376h2.205L5.622,1.25c0.086-0.088,0.194-0.109,0.324-0.066C6.065,1.237,6.126,1.33,6.126,1.458z
			 M9.301,11.634c-0.141,0.13-0.275,0.13-0.405,0l-0.826-0.81c-0.13-0.151-0.13-0.292,0-0.422C9.008,9.463,9.479,8.33,9.479,7
			s-0.472-2.463-1.41-3.403c-0.141-0.129-0.141-0.265,0-0.405l0.826-0.826c0.13-0.129,0.265-0.129,0.405,0
			c0.843,0.843,1.412,1.826,1.71,2.949c0.297,1.124,0.297,2.248,0,3.371C10.713,9.809,10.144,10.792,9.301,11.634z M11.164,13.903
			l-0.826-0.811c-0.129-0.15-0.129-0.292,0-0.422c1.026-1.025,1.721-2.229,2.082-3.604c0.363-1.379,0.363-2.755,0-4.132
			c-0.361-1.377-1.056-2.579-2.082-3.605c-0.142-0.129-0.142-0.265,0-0.405l0.826-0.827c0.129-0.129,0.265-0.129,0.404,0
			c1.253,1.253,2.104,2.717,2.553,4.391c0.447,1.675,0.447,3.349,0,5.023c-0.449,1.675-1.3,3.138-2.553,4.392
			C11.429,14.033,11.293,14.033,11.164,13.903z"/>
	</g>
</g>
</svg>
